!!!OTL: Jesus und Seele (3-8), S. 31
!!!id: P0979
**kern
*clefG2
*k[b-]
*D:
{4d
=1
4g
4f#
=2
*M4/4
2g
4a
4b
=3
*M2/4
4g
4f#
=4
2g}
=5yy
4r
=6
{4a
=7
4b-
4cc
=8
*M4/4
2a
4g
4b-
=9
*M2/4
2a}
=10
2.r
=11
{4d
=12
4g
4f#
=13
*M4/4
2g
4a
4b
=14
*M2/4
4g
8g
8f#
=15
2g}
=16yy
4r
=17
{4a
=18
8b-
8b-
4cc
=19
*M4/4
2a
4g
4b
=20
*M2/4
2a}
=21
*M4/4
{4b-
4a
4g
4a
=22
2b-
4b-
4a
=23
2g
4f
4e
=24
2f}
4r
=25
{4a
=26
2g
4f
4e
=27
*M2/4
4d
4d}
=28
{2d
=29
*M4/4
2.a
4b-
=30
2a}
2r
=31
{2a
4d
4e
=32
2f
2e
=33
2d}
4r
==
*-
!!!minrhy: 8
!!!meters: 2/4 4/4 ]  ZZ[8
!!!cut: Jesus und Seele (3-8), S. 31
!!!reg: Lothringen
!!!trd: PINCK, Louis: Verklingende Weisen, Bd3, Metz 1933
!!!rhy1: X_  X_X_  X__X_X_  X_X_  X__0   (x2)
!!!rhy2: X_  X_X_  X__X_X_  X__  0_.
!!!key: P0979  08  D 2/4 4/4 ]  ZZ[8
!!!mod: NEUNTONSKALA ]  AMBITUS[7b
!!!kad: 45453b151
!!!akz: 44544_6b545_44544_6b545_6b46b6b43b3b_43b1_1555_513b21_
!!!fot: 'a__b__c__bv_d__e__f__g__
!!!for: 'a__aw_aw_b__c__d__e__f__
!!!fok: '^a_^__^a_^__\__\__/__Sd_
!! PHRAS[VORWIEGEND AUFTAKTIG]
!!!fkt: yyy
!! LOTH VKL
!! PR[50] 2K[8] 2G[12] 3K[0] 3G[0] 4A[0] 4Ü[0] 5A[0] 6K[0] 6G[0]
!! 7K[0] 7G[0] 8A[0] MEHR[0] SI[19] ABS[26] SR[19] SP[0]
!! ST[8] 2k[8] 2g[19] 3k[4] 3g[0] 4d[0] 4ü[0] 5d[0] 6k[0] 6g[0]
!! 7k[0] 7g[0] 8d[0] mehr[0] si[31] dm[-12] sr[27] sp[4]
!! 1F[7] 2F[79] 3F[14] 4F[0] LF[0] 2P[0] 3P[0] 4P[0] TRI[0] DF[3] AB[29]
!! TF[0] U3K[0] U3[0] U4[0] U4Ü[0] U5[0] U6K[0] U6[0] U7K[0] U7[0]
!! N1[4] N2K[0] N2[15] N3K[7] N3[0] N4[11] N4Ü[0] N5[44] N6K[0] N6[11]
!!!n7k: 7] N7[0] O1[0] O2K[0] O2[0] O3K[0] O3[0] HÖ[0
